X: 17264
T: Here We Come A-Wassailing
R: hornpipe
M: 4/4
K: Dmajor
"D"D2A A2B|"D" A2A F2D|"D" D2E F2G|"A" (E3 E2) E|
"D"D2A A2B|"D" A2A F2D|"D" D2E F2G|"A" E3 ABc||
"D"d2d d2d|"C" =c3 "G" B2B|"D"A2F DEF|"G" G3 F2G|
"D"A3 A2B|"D" A3 A2B|"A" A3 G2E|"D" (D3 D2) E||

